X:47
T:Sligo Creek
A:Danny Noveck
M:4/4
K:Bm
|: f2 ef dB ~B2 | f2 ef defg | a2 ed cAAF | EFAB c2 ce | \
   f2 ef dB ~B2 | f2 ef defg | a2 ed cAec |1 ABBA Bcde | \
   :|2 ABBA BcBA \
  |: GB ~B2 Bcde | f2 ec defd | ec c2 cAFA | EFAB c2 BA |
     GB ~B2 Bcde | f2 ec defd | ea ~a2 faec |1 aBBa BcBA :|2 aBBa B4 |
